svg/emoji_u23ed.svg

<svg width="128" height="128" viewBox="0 0 128 128" fill="none" xmlns="http://www.w3.org/2000/svg">
<path d="M116.46 4H12.46C8.03996 4 4.45996 7.58 4.45996 12V116C4.45996 120.42 8.03996 124 12.46 124H116.46C120.88 124 124.46 120.42 124.46 116V12C124.46 7.58 120.88 4 116.46 4Z" fill="#427687" style="fill:#427687;fill:color(display-p3 0.2588 0.4627 0.5294);fill-opacity:1;"/>
<path d="M110.16 4H11.96C7.82998 4.03 4.48998 7.37 4.45998 11.5V109.4C4.44998 113.54 7.79998 116.89 11.94 116.9C11.95 116.9 11.95 116.9 11.96 116.9H110.06C114.2 116.91 117.55 113.56 117.56 109.42C117.56 109.41 117.56 109.41 117.56 109.4V11.5C117.65 7.45 114.43 4.09 110.38 4C110.31 4 110.23 4 110.16 4Z" fill="#8CAFBF" style="fill:#8CAFBF;fill:color(display-p3 0.5490 0.6863 0.7490);fill-opacity:1;"/>
<path d="M107.56 36H97.36C96.31 36 95.46 36.85 95.46 37.9V61.4L59.56 36.4C58.58 35.82 57.32 36.14 56.74 37.12C56.51 37.51 56.41 37.96 56.46 38.4V60.7L21.46 36.3C20.06 35.4 18.46 36.5 18.46 38.3V89.7C18.46 91.5 20.16 92.6 21.46 91.7L56.46 67.3V89.6C56.33 90.73 57.15 91.75 58.28 91.88C58.73 91.93 59.18 91.83 59.56 91.6L95.46 66.6V90.1C95.46 91.15 96.31 92 97.36 92H107.66C108.71 92 109.56 91.15 109.56 90.1V37.9C109.51 36.83 108.63 36 107.56 36Z" fill="#FAFAFA" style="fill:#FAFAFA;fill:color(display-p3 0.9804 0.9804 0.9804);fill-opacity:1;"/>
<path opacity="0.75" d="M40.1601 12.8999C40.1601 10.5999 38.5601 9.89988 29.3601 10.1999C21.6601 10.4999 17.8601 11.3999 15.5601 14.1999C13.2601 16.9999 12.6601 22.6999 12.5601 29.4999C12.5601 34.2999 12.5601 38.7999 15.0601 38.7999C18.4601 38.7999 18.4601 30.8999 21.2601 26.4999C26.6601 17.7999 40.1601 15.8999 40.1601 12.8999Z" fill="#A0C8D6" style="fill:#A0C8D6;fill:color(display-p3 0.6275 0.7843 0.8392);fill-opacity:1;"/>
</svg>

<?xml version="1.0" encoding="utf-8"?>
<!-- Generator: Adobe Illustrator 25.2.3, SVG Export Plug-In . SVG Version: 6.00 Build 0)  -->
<svg version="1.1" id="Layer_1" xmlns="http://www.w3.org/2000/svg" xmlns:xlink="http://www.w3.org/1999/xlink" x="0px" y="0px"
	 viewBox="0 0 128 128" style="enable-background:new 0 0 128 128;" xml:space="preserve">
<g>
	<path style="fill:#F77E00;" d="M116.46,4h-104c-4.42,0-8,3.58-8,8v104c0,4.42,3.58,8,8,8h104c4.42,0,8-3.58,8-8V12
		C124.46,7.58,120.88,4,116.46,4z"/>
	<path style="fill:#FF9800;" d="M110.16,4h-98.2c-4.13,0.03-7.47,3.37-7.5,7.5v97.9c-0.01,4.14,3.34,7.49,7.48,7.5
		c0.01,0,0.01,0,0.02,0h98.1c4.14,0.01,7.49-3.34,7.5-7.48c0-0.01,0-0.01,0-0.02V11.5c0.09-4.05-3.13-7.41-7.18-7.5
		C110.31,4,110.23,4,110.16,4z"/>
	<path style="fill:#FAFAFA;" d="M107.56,36h-10.2c-1.05,0-1.9,0.85-1.9,1.9v0v23.5l-35.9-25c-0.98-0.58-2.24-0.26-2.82,0.72
		c-0.23,0.39-0.33,0.84-0.28,1.28v22.3l-35-24.4c-1.4-0.9-3,0.2-3,2v51.4c0,1.8,1.7,2.9,3,2l35-24.4v22.3
		c-0.13,1.13,0.69,2.15,1.82,2.28c0.45,0.05,0.9-0.05,1.28-0.28l35.9-25v23.5c0,1.05,0.85,1.9,1.9,1.9l0,0h10.3
		c1.05,0,1.9-0.85,1.9-1.9l0,0V37.9C109.51,36.83,108.63,36,107.56,36z"/>
	<path style="opacity:0.75;fill:#FFBD52;enable-background:new    ;" d="M40.16,12.9c0-2.3-1.6-3-10.8-2.7c-7.7,0.3-11.5,1.2-13.8,4
		s-2.9,8.5-3,15.3c0,4.8,0,9.3,2.5,9.3c3.4,0,3.4-7.9,6.2-12.3C26.66,17.8,40.16,15.9,40.16,12.9z"/>
</g>
</svg>
